myportfolio/site/duhoot/image/duhoot_sprite.svg

<svg xmlns="http://www.w3.org/2000/svg"
	xmlns:xlink="http://www.w3.org/1999/xlink"
>
<symbol id="note_icon" viewBox="0 0 500.0 500.0">
	<path
		d="m 152,384 c 9,14 -23,37 -42,51 -19,13 -61,31 -69,17 -9,-15 24,-40 44,-54 19,-13 58,-27 67,-14 z m 305,-79 c 8,10 -19,39 -38,52 -20,13 -65,28 -71,17 -7,-11 20,-38 39,-52 20,-13 62,-27 70,-17 z M 455,51 V 99 L 190,169 V 120 Z M 476,0 c -2,0 -3,0 -5,1 L 162,82 c -9,3 -16,11 -16,21 v 233 c -2,0 -4,0 -7,0 -20,2 -43,10 -65,24 -23,13 -43,30 -56,49 -13,19 -23,43 -15,65 9,22 30,27 51,26 20,-2 43,-10 66,-24 23,-13 42,-30 55,-49 13,-18 23,-42 15,-63 V 214 l 265,-69 v 114 c -3,0 -6,0 -9,0 -20,1 -43,10 -66,23 -23,14 -42,31 -55,50 -14,19 -24,43 -15,65 9,22 30,27 51,26 20,-2 43,-10 66,-24 23,-14 42,-31 55,-49 12,-17 21,-37 17,-57 V 22 C 499,10 489,0 476,0 Z"/>
</symbol>
<symbol id="bus_icon" viewBox="0 0 100 100">
	<path 
		d="M67 0c18,0 33,14 33,31l0 34c0,0 0,0 0,0l0 18c0,3 -2,4 -4,4l-5 0 0 7c0,3 -3,6 -7,6l-14 0c-4,0 -7,-3 -7,-6l0 -7 -26 0 0 7c0,3 -3,6 -7,6l-14 0c-4,0 -7,-3 -7,-6l0 -7 -5 0c-2,0 -4,-1 -4,-4l0 -52c0,-17 15,-31 32,-31l35 0 0 0zm-34 8c-14,0 -25,10 -25,23l0 49c26,0 55,0 84,0 0,-17 0,-33 0,-49 0,-13 -11,-23 -24,-23l-35 0zm41 6c1,0 3,1 3,3 0,1 -2,3 -3,3l-48 0c-2,0 -3,-2 -3,-3 0,-2 1,-3 3,-3l48 0zm8 10c3,0 5,3 5,6l0 19c0,3 -2,5 -5,5l-64 0c-3,0 -6,-2 -6,-5l0 -19c0,-3 3,-6 6,-6l64 0zm-66 6l0 19c0,1 1,2 2,2l64 0c1,0 2,-1 2,-2l0 -19c0,-2 -1,-3 -2,-3l-64 0c-1,0 -2,1 -2,3zm61 34c0,3 -2,6 -5,6 -3,0 -6,-3 -6,-6 0,-3 3,-5 6,-5 3,0 5,2 5,5zm-43 1c0,3 -3,5 -6,5 -3,0 -6,-2 -6,-5 0,-3 3,-6 6,-6 3,0 6,3 6,6zm35 -1c0,2 1,3 3,3 1,0 3,-1 3,-3 0,-1 -2,-2 -3,-2 -2,0 -3,1 -3,2zm-44 1c0,1 1,3 3,3 2,0 3,-2 3,-3 0,-2 -1,-3 -3,-3 -2,0 -3,1 -3,3zm-8 27l11 0 0 -5 -11 0 0 5zm54 0l11 0 0 -5 -11 0 0 5z" />
</symbol>
<symbol id="hause_icon" viewBox="0 0 100 79">
	<path 
		d="M50 0c0,0 0,0 0,0 0,0 0,0 0,0 -1,1 -2,1 -3,2l-45 35c-1,1 -2,2 -2,3 0,3 2,5 4,5 1,0 2,-1 3,-1l6 -5 0 17 0 19c0,2 2,4 4,4 0,0 0,0 0,0l23 0c0,0 0,0 0,0 2,0 4,-2 4,-4l0 -25 6 0 6 0 0 25c0,2 2,4 4,4l23 0c0,0 0,0 0,0 2,0 4,-2 4,-4l0 -36 6 5c1,0 2,1 3,1 2,0 4,-2 4,-5 0,-1 -1,-2 -2,-3l-45 -35c-1,-1 -2,-2 -3,-2 0,0 0,0 0,0l0 0zm0 10l29 23 0 38 -15 0 0 -25c0,-2 -2,-4 -4,-4 0,0 0,0 0,0l-10 0 -10 0c0,0 0,0 0,0 -2,0 -4,2 -4,4l0 25 -15 0 0 -15 0 -23 29 -23z"/>
	</symbol>
<symbol id="girl_icon" viewBox="0 0 16 19">
	<path 
		d="M 8 0 C 3.6742671 0 0.18164062 3.8257811 0.18164062 8.5507812 C 0.18164062 10.125781 0.57370979 11.675391 1.3554688 13.025391 C 1.5639378 13.400391 2.085015 13.575 2.5019531 13.375 C 3.101524 13.111361 3.8394279 12.82248 4.5195312 12.644531 C 4.7541482 12.933211 5.0046824 13.187062 5.2714844 13.408203 C 2.2761675 13.854094 0 16.191403 0 19 L 1.7460938 19 C 1.7460938 16.8 3.7789533 15 6.3066406 15 L 6.3066406 14.041016 C 6.7030834 14.218506 7.1157094 14.35286 7.5566406 14.400391 C 8.5970398 14.447362 8.8676304 14.378494 9.6933594 14.074219 L 9.6933594 15 C 12.221047 15 14.253906 16.8 14.253906 19 L 16 19 C 16 16.203588 13.743632 13.874392 10.767578 13.414062 C 10.907491 13.300782 11.030793 13.17302 11.230469 12.949219 C 11.309682 12.86478 11.375691 12.758794 11.451172 12.667969 C 12.145731 12.84304 12.910076 13.104438 13.525391 13.375 C 13.629625 13.425 13.758379 13.449219 13.888672 13.449219 C 14.201375 13.449219 14.515523 13.300391 14.671875 13.025391 C 15.427575 11.675391 15.818359 10.125781 15.818359 8.5507812 C 15.818359 3.8257811 12.325733 0 8 0 z M 8 1.6757812 C 11.335505 1.6757812 14.071598 4.7507811 14.097656 8.5507812 C 14.097656 9.6007813 13.888926 10.600391 13.498047 11.525391 C 13.134418 11.396865 12.771832 11.2845 12.408203 11.175781 C 12.757194 10.442866 13.037305 9.6015931 13.238281 8.6503906 C 13.316457 8.3253906 13.341129 7.9746094 13.367188 7.5996094 C 13.367188 7.4746094 13.316457 7.3503906 13.238281 7.2753906 C 13.160105 7.2003906 13.056074 7.1503906 12.925781 7.1503906 L 8.8867188 7.1503906 L 8.7558594 5.875 C 8.7298007 5.675 8.5470277 5.5 8.3125 5.5 C 8.0779723 5.5 7.8951993 5.65 7.8691406 5.875 L 7.7402344 7.1503906 L 7.140625 7.1503906 L 6.75 4.4492188 C 6.6978827 4.2492187 6.5151097 4.0996094 6.3066406 4.0996094 C 6.0721129 4.0996094 5.8893399 4.2492187 5.8632812 4.4492188 L 5.4726562 7.1503906 L 3.0742188 7.1503906 C 2.9699842 7.1503906 2.8398946 7.2003906 2.7617188 7.2753906 C 2.6574842 7.3753906 2.6328125 7.4746094 2.6328125 7.5996094 C 2.6588711 7.9996094 2.6835429 8.3253906 2.7617188 8.6503906 C 2.9664104 9.6042173 3.2584045 10.442627 3.6132812 11.179688 C 3.2428729 11.290576 2.8699474 11.397569 2.5273438 11.525391 C 2.1364643 10.600391 1.9277344 9.5757813 1.9277344 8.5507812 C 1.9277344 4.7507811 4.6644951 1.6757812 8 1.6757812 z M 6.3066406 7.6503906 C 6.3587579 7.8753906 6.5415309 8.0253906 6.75 8.0253906 L 8.1308594 8.0253906 C 8.2090353 8.0253906 8.2603827 8.025 8.3125 8 C 8.3646173 8.025 8.4420234 8.0253906 8.4941406 8.0253906 L 12.455078 8.0253906 C 12.429019 8.2003906 12.403012 8.35 12.376953 8.5 C 12.012132 10.175 11.387896 11.5 10.580078 12.375 C 9.74855 13.172747 9.2968912 13.575494 7.6347656 13.574219 C 5.97264 13.572936 4.2745127 11.525 3.6230469 8.5 C 3.5969882 8.35 3.5709805 8.2003906 3.5449219 8.0253906 L 5.8632812 8.0253906 C 6.0978089 8.0253906 6.280582 7.8503906 6.3066406 7.6503906 z M 6.1503906 8.6503906 C 5.8637457 8.6503906 5.6289062 8.8753906 5.6289062 9.1503906 C 5.6289062 9.4253906 5.8637457 9.6503906 6.1503906 9.6503906 C 6.4370356 9.6503906 6.671875 9.4253906 6.671875 9.1503906 C 6.671875 8.8753906 6.4370356 8.6503906 6.1503906 8.6503906 z M 9.8496094 8.6503906 C 9.5629644 8.6503906 9.328125 8.8753906 9.328125 9.1503906 C 9.328125 9.4253906 9.5629644 9.6503906 9.8496094 9.6503906 C 10.136254 9.6503906 10.371094 9.4253906 10.371094 9.1503906 C 10.371094 8.8753906 10.136254 8.6503906 9.8496094 8.6503906 z "/>
</symbol>
<symbol id="cap_icon" viewBox="0 0 100 62">
	<path 
		d="M50 0c-2,0 -4,0 -5,1l-43 18c-1,1 -2,2 -2,2 0,1 1,2 2,3l12 5 0 19c0,0 0,0 0,0 0,1 0,2 1,2 0,0 13,12 34,12 20,0 35,-11 35,-11 1,-1 1,-2 1,-3l0 -19 10 -4 0 8c-2,1 -3,2 -3,4 0,0 0,0 0,0l0 14c0,2 2,3 4,3 2,0 4,-1 4,-3l0 -14c0,0 0,0 0,0 0,-2 -1,-3 -3,-4l0 -9 1 0c1,-1 2,-2 2,-3 0,0 -1,-1 -2,-2l-44 -18c-1,-1 -2,-1 -4,-1 0,0 0,0 0,0zm0 7l34 14 -34 15 -34 -15 34 -14zm-30 25l25 10c1,1 3,1 5,1 2,0 3,0 4,-1l25 -10 0 15c-2,1 -14,9 -30,9 -17,0 -27,-9 -29,-10l0 -14z"/>
</symbol>
<symbol id="star_icon" viewBox="0 0 4.7624999 4.7625001">
	<path 
     d="M 2.3812501,0.52611559 2.9967271,1.7732142 4.3729757,1.9731856 3.3771129,2.9439192 3.6122042,4.3146064 2.38125,3.6674543 1.1502958,4.3146064 1.3853871,2.9439192 0.38952428,1.9731856 1.7657729,1.7732142 Z" />
</symbol>
<symbol id="flash_icon" viewBox="0 0 3.9687499 7.6729169">
	<path 
     d="m 1.2990698,7.5182226 c -0.0535,-0.0194 -0.10262,-0.0705 -0.11839,-0.12307 -0.0154,-0.0513 -0.0629,0.15292 0.56608,-2.43052 0.16507,-0.67798 0.29784,-1.23497 0.29505,-1.23776 -0.003,-0.003 -0.41089,0.0953 -0.90689,0.21803 -0.49599999,0.12271 -0.92115999,0.22303 -0.94481999,0.22293 -0.0604,-2.5e-4 -0.11049,-0.024 -0.15331,-0.0728 -0.0301,-0.0342 -0.03680000365,-0.0514 -0.03680000365,-0.0942 0,-0.0402 0.61076000365,-2.58205 0.86684000365,-3.60752001 0.0297,-0.11898 0.0415,-0.14825 0.0743,-0.18455 0.0222,-0.0246 0.0568,-0.0481 0.0805,-0.0547 0.0262,-0.007 0.32317,-0.0116 0.80261,-0.0116 0.73755,-4e-5 0.76254,6.4e-4 0.808,0.0226 0.0258,0.0125 0.0588,0.0388 0.0734,0.0585 0.0579,0.0782 0.0699,0.0378 -0.35114,1.17995001 -0.21305,0.57797 -0.38563,1.05258 -0.38351,1.0547 0.002,0.002 0.40912,-0.0961 0.90443,-0.21826 1.02156,-0.25195 0.95036,-0.24198 1.04579,-0.14655 0.0915,0.0915 0.19261,-0.14807 -1.16361,2.75635 -0.66143,1.4165 -1.21298,2.59012 -1.22567,2.60805 -0.0449,0.0634 -0.14953,0.0905 -0.23287,0.0603 z"
		/>
</symbol>

<symbol id="leaf_icon" viewBox="0 0 7.9374998 6.3500002">
	<path 
		d="m 0.42207211,6.2841473 c -0.133786,-0.0241 -0.23466,-0.12102 -0.367458,-0.35312 -0.04865,-0.085 -0.0549499981,-0.1057 -0.05459999813,-0.17906 8.55e-4,-0.17869 0.14835099813,-0.37928 0.46333199813,-0.63013 0.252905,-0.20142 0.379077,-0.3264 0.397743,-0.394 0.01299,-0.0471 0.009,-0.0647 -0.04608,-0.20499 -0.08414,-0.21418 -0.09819,-0.28928 -0.106963,-0.57147 -0.01479,-0.4758 0.06217,-0.83239 0.267597,-1.24003 0.20218299,-0.40119 0.44088499,-0.68632 0.84928999,-1.01448 0.381926,-0.30688 0.950739,-0.5973 1.383198,-0.70620995 0.271765,-0.0684 0.681341,-0.1028 1.497189,-0.12559 0.740593,-0.0207 0.951994,-0.0396 1.268487,-0.1136 0.300758,-0.0703 0.457101,-0.15624 0.68486,-0.37648 0.266865,-0.25805 0.344878,-0.30241 0.554028,-0.31501 0.144368,-0.009 0.204192,0.0116 0.293493,0.0994 0.183424,0.18035 0.305017,0.52443 0.39916,1.12952995 0.07907,0.50821 0.0096,1.19245 -0.178716,1.75981 -0.191335,0.57652 -0.462352,1.01106 -0.906697,1.45377 -0.380753,0.37936 -0.796113,0.67414 -1.333776,0.94659 -1.046171,0.53013 -2.112844,0.63949 -3.150458,0.32299 -0.06154,-0.0188 -0.240701,-0.0967 -0.398136,-0.17314 -0.337734,-0.16402 -0.434093,-0.20269 -0.505126,-0.20269 -0.09218,0 -0.149412,0.0686 -0.43696799,0.52381 -0.08688,0.13753 -0.235839,0.29613 -0.316365,0.33684 -0.06615,0.0335 -0.164744,0.0439 -0.257037,0.0273 z m 1.71895599,-1.74522 c 0.02886,-0.019 0.195804,-0.17537 0.370985,-0.34754 0.384446,-0.37784 0.573552,-0.53962 0.84849,-0.72586 0.559181,-0.37881 1.082963,-0.53873 1.86967,-0.57087 0.235675,-0.01 0.24114,-0.0105 0.304152,-0.0495 0.09166,-0.0567 0.143263,-0.15625 0.134298,-0.25917 -0.0079,-0.0912 -0.05445,-0.16983 -0.129942,-0.21979 -0.04622,-0.0306 -0.07158,-0.0367 -0.17235,-0.0415 -0.06499,-0.003 -0.214959,0.002 -0.333273,0.0103 -0.95307,0.0705 -1.780217,0.4156 -2.51714,1.05004 -0.318351,0.27409 -0.749478,0.71502 -0.793173,0.81122 -0.03119,0.0687 -0.03122,0.15826 -5e-5,0.22686 0.03146,0.0693 0.124511,0.14894 0.185845,0.15914 0.02614,0.004 0.05349,0.009 0.06078,0.0113 0.02936,0.007 0.122322,-0.0221 0.171718,-0.0546 z" 
		/>
</symbol>

<symbol id="saerch_icon" viewBox="0 0 6.0854165 6.0854168">
	<path 
		d="M 5.4940711,6.0681547 C 5.4040011,6.0411092 5.3398791,5.9894132 5.1047731,5.7541667 4.9934541,5.6427909 4.7062551,5.3594412 4.4665551,5.124514 l -0.43582,-0.4271602 -0.127429,0.080338 C 3.4602111,5.05697 2.8978471,5.1859005 2.3483511,5.1341746 1.5612821,5.0601236 0.8641541,4.6511567 0.4352631,4.0119533 0.3462531,3.8793003 0.1755241,3.5311709 0.1243091,3.3778994 c -0.129052,-0.3862126 -0.161253,-0.9121641 -0.07949,-1.2983767 0.214161,-1.0116539 0.927498,-1.75370034 1.928715,-2.00632188 1.119607,-0.28251139 2.34765,0.2738588 2.877282,1.30355628 0.118688,0.2307556 0.162308,0.3435885 0.220125,0.569424 0.169671,0.662746 0.0679,1.3652022 -0.280852,1.9385682 l -0.08904,0.1463754 0.656355,0.6587541 c 0.422649,0.4241862 0.668975,0.6854504 0.691798,0.7337332 0.05006,0.1059168 0.0479,0.2945572 -0.0045,0.3939172 -0.107632,0.2040593 -0.345337,0.3122615 -0.550626,0.2506455 z m -2.652571,-1.8731 c 0.349521,-0.056586 0.618168,-0.1975623 0.888716,-0.4663114 0.332474,-0.3302553 0.486258,-0.6954004 0.486258,-1.1545862 0,-0.4647346 -0.153656,-0.8253288 -0.495269,-1.1622607 -0.333405,-0.3288481 -0.691228,-0.47774842 -1.148048,-0.47774842 -0.455313,0 -0.825485,0.15541722 -1.156844,0.48571242 -0.357667,0.3565124 -0.507063,0.7443818 -0.480705,1.2480281 0.02126,0.4062124 0.155473,0.7207194 0.434697,1.0186198 0.257758,0.2749965 0.574363,0.4504434 0.914778,0.5069397 0.141092,0.023453 0.416866,0.024251 0.556417,0.002 z"
		/>
</symbol>

<symbol id="masage_icon" viewBox="0 0 7.1437499 5.8208335">
	<path 
		d="m6.0733074 296.70494c-.31923-.0657-.75314-.24431-1.02538-.42215l-.11342-.0741-.11457.0175c-.6004903.0917-1.2524403.0221-1.7884303-.19081-.14065-.0559-.50065-.24293-.4865-.25279.002-.001.0758.002.16391.009.38851.0272.92802-.0436 1.34336-.17625.9335303-.29815 1.6223003-.93726 1.8226403-1.69122.0504-.1898.0624-.28757.0615-.50188-.00089-.20284-.0193-.35106-.0603-.48574-.0102-.0333-.0165-.0626-.014-.065.002-.002.0804.0463.17332.10823.19591.1307.40873.32704.5308.4897.15982.21294.27049.46518.30272.68993.0208.14539.009.42435-.0243.5552-.10279.40813-.38472.77566-.81439 1.06164-.0644.0428-.1194.0798-.12225.0821-.003.002.0204.0557.0517.11878.0632.1274.17431.27709.33361.44962.11124.12049.13194.16403.10796.22711-.0354.093-.0868.10111-.32789.0515zm-5.25340024-.92367c-.0486-.0205-.0766-.063-.0766-.11646 0-.0532.0137-.0741.14125999-.21566.18185005-.20178.26103005-.31235.32554005-.45463l.0371-.0819-.1194799-.0776c-.31180996-.2025-.55100996-.4602-.70160996-.75588-.36864003-.72379-.0934-1.53871.69372996-2.05375.8770899-.57393 2.1834099-.64888 3.1669499-.18171.28426.13502.4981403.28553.6983703.49144.23641.24314.36546.46482.44251.76015.0252.0965.0289.13966.0289.33274 0 .1928-.004.23634-.0289.33274-.0944.36301-.302.67143-.63312.94069-.3605103.29317-.9109503.51516-1.4572103.58769-.30732.0408-.71844.0363-1.01627-.0111l-.0995-.0158-.12609.0795c-.33273.20982-.77813.38208-1.13244987.43798-.086.0136-.11383999.0138-.14321999.002zm1.14909994-.92704.13508-.0922.14837.0265c.4325.0773.77432.0808 1.15892.0119.51314-.092.95625-.31302 1.2549603-.62606.23245-.24361.34187-.51184.32444-.79537-.009-.15139-.0322-.24105-.0952-.3722-.24036-.50073-.9043803-.88769-1.6791403-.97854-.19433-.0228-.70757-.008-.8834.0249-.71601.13537-1.2713199.48971-1.49801994.95585-.0727.14955-.0953.25065-.0951.42517.00019.11754.006.16065.0333.25264.0567.19008.16678999.3651.33343004.52992.12633.12495.2653399.22315.5263799.37184.11386.0649.20703.11927.20703.1209 0 .002-.0171.0439-.038.094s-.0488.118-.062.15096l-.024.0599.0589-.034c.0324-.0187.11969-.0755.19398-.1262z" stroke-width=".012324" transform="translate(0 -291.17916)"
		/>
</symbol>

<svg xmlns="http://www.w3.org/2000/svg"><symbol id="note_icon" viewBox="0 0 500 500"><path d="M152 384c9 14-23 37-42 51-19 13-61 31-69 17-9-15 24-40 44-54 19-13 58-27 67-14zm305-79c8 10-19 39-38 52-20 13-65 28-71 17-7-11 20-38 39-52 20-13 62-27 70-17zm-2-254v48l-265 70v-49zm21-51c-2 0-3 0-5 1L162 82c-9 3-16 11-16 21v233h-7c-20 2-43 10-65 24-23 13-43 30-56 49s-23 43-15 65c9 22 30 27 51 26 20-2 43-10 66-24 23-13 42-30 55-49 13-18 23-42 15-63V214l265-69v114h-9c-20 1-43 10-66 23-23 14-42 31-55 50-14 19-24 43-15 65s30 27 51 26c20-2 43-10 66-24s42-31 55-49c12-17 21-37 17-57V22c0-12-10-22-23-22z"/></symbol><symbol id="bus_icon" viewBox="0 0 100 100"><path d="M67 0c18 0 33 14 33 31v52c0 3-2 4-4 4h-5v7c0 3-3 6-7 6H70c-4 0-7-3-7-6v-7H37v7c0 3-3 6-7 6H16c-4 0-7-3-7-6v-7H4c-2 0-4-1-4-4V31C0 14 15 0 32 0h35zM33 8C19 8 8 18 8 31v49h84V31C92 18 81 8 68 8H33zm41 6c1 0 3 1 3 3 0 1-2 3-3 3H26c-2 0-3-2-3-3 0-2 1-3 3-3h48zm8 10c3 0 5 3 5 6v19c0 3-2 5-5 5H18c-3 0-6-2-6-5V30c0-3 3-6 6-6h64zm-66 6v19c0 1 1 2 2 2h64c1 0 2-1 2-2V30c0-2-1-3-2-3H18c-1 0-2 1-2 3zm61 34c0 3-2 6-5 6s-6-3-6-6 3-5 6-5 5 2 5 5zm-43 1c0 3-3 5-6 5s-6-2-6-5 3-6 6-6 6 3 6 6zm35-1c0 2 1 3 3 3 1 0 3-1 3-3 0-1-2-2-3-2-2 0-3 1-3 2zm-44 1c0 1 1 3 3 3s3-2 3-3c0-2-1-3-3-3s-3 1-3 3zm-8 27h11v-5H17v5zm54 0h11v-5H71v5z"/></symbol><symbol id="hause_icon" viewBox="0 0 100 79"><path d="M50 0c-1 1-2 1-3 2L2 37c-1 1-2 2-2 3 0 3 2 5 4 5 1 0 2-1 3-1l6-5v36c0 2 2 4 4 4h23c2 0 4-2 4-4V50h12v25c0 2 2 4 4 4h23c2 0 4-2 4-4V39l6 5c1 0 2 1 3 1 2 0 4-2 4-5 0-1-1-2-2-3L53 2c-1-1-2-2-3-2zm0 10l29 23v38H64V46c0-2-2-4-4-4H40c-2 0-4 2-4 4v25H21V33l29-23z"/></symbol><symbol id="girl_icon" viewBox="0 0 16 19"><path d="M8 0C3.674 0 .182 3.826.182 8.55c0 1.576.392 3.125 1.173 4.475.209.375.73.55 1.147.35.6-.264 1.337-.553 2.018-.73.234.288.485.542.751.763C2.276 13.854 0 16.191 0 19h1.746c0-2.2 2.033-4 4.56-4v-.959c.397.178.81.312 1.25.36 1.041.046 1.312-.023 2.137-.327V15c2.528 0 4.56 1.8 4.56 4H16c0-2.796-2.256-5.126-5.232-5.586a3.87 3.87 0 0 0 .462-.465c.08-.084.146-.19.221-.281.695.175 1.46.436 2.074.707.105.05.233.074.364.074.312 0 .627-.149.783-.424a9.174 9.174 0 0 0 1.146-4.474C15.818 3.826 12.326 0 8 0zm0 1.676c3.336 0 6.072 3.075 6.098 6.875a7.6 7.6 0 0 1-.6 2.974c-.364-.128-.726-.24-1.09-.35.35-.732.63-1.573.83-2.525.078-.325.103-.675.13-1.05a.465.465 0 0 0-.13-.325.44.44 0 0 0-.312-.125h-4.04l-.13-1.275a.445.445 0 0 0-.444-.375c-.234 0-.417.15-.443.375L7.74 7.15h-.6l-.39-2.7a.466.466 0 0 0-.443-.35c-.235 0-.418.15-.444.35l-.39 2.7H3.074a.49.49 0 0 0-.312.125c-.105.1-.13.2-.13.325.027.4.052.725.13 1.05.204.954.496 1.793.851 2.53-.37.11-.743.218-1.086.345a7.71 7.71 0 0 1-.6-2.974c0-3.8 2.737-6.875 6.073-6.875zM6.307 7.65a.463.463 0 0 0 .443.375h1.38c.079 0 .13 0 .182-.025.053.025.13.025.182.025h3.961c-.026.175-.052.325-.078.475-.365 1.675-.99 3-1.797 3.875-.831.798-1.283 1.2-2.945 1.2-1.662-.002-3.36-2.05-4.012-5.075-.026-.15-.052-.3-.078-.475h2.318a.445.445 0 0 0 .444-.375zm-.157 1a.513.513 0 0 0-.521.5c0 .275.235.5.521.5a.513.513 0 0 0 .522-.5c0-.275-.235-.5-.522-.5zm3.7 0a.513.513 0 0 0-.522.5c0 .275.235.5.522.5a.513.513 0 0 0 .521-.5c0-.275-.235-.5-.521-.5z"/></symbol><symbol id="cap_icon" viewBox="0 0 100 62"><path d="M50 0c-2 0-4 0-5 1L2 19l-2 2c0 1 1 2 2 3l12 5v19c0 1 0 2 1 2 0 0 13 12 34 12 20 0 35-11 35-11 1-1 1-2 1-3V29l10-4v8c-2 1-3 2-3 4v14c0 2 2 3 4 3s4-1 4-3V37c0-2-1-3-3-4v-9h1c1-1 2-2 2-3l-2-2L54 1c-1-1-2-1-4-1zm0 7l34 14-34 15-34-15L50 7zM20 32l25 10c1 1 3 1 5 1s3 0 4-1l25-10v15c-2 1-14 9-30 9-17 0-27-9-29-10V32z"/></symbol><symbol id="star_icon" viewBox="0 0 4.762 4.763"><path d="M2.381.526l.616 1.247 1.376.2-.996.97.235 1.372-1.23-.648-1.232.648.235-1.371-.995-.97 1.376-.2z"/></symbol><symbol id="flash_icon" viewBox="0 0 3.969 7.673"><path d="M1.3 7.518a.203.203 0 0 1-.12-.123c-.015-.051-.062.153.567-2.43a64.53 64.53 0 0 0 .295-1.238c-.003-.003-.411.095-.907.218-.496.123-.921.223-.945.223a.196.196 0 0 1-.153-.073C.007 4.061 0 4.044 0 4.001 0 3.96.61 1.419.867.393.897.274.908.245.94.21a.203.203 0 0 1 .08-.055c.027-.007.324-.012.803-.012.738 0 .763.001.808.023a.235.235 0 0 1 .074.059c.058.078.07.037-.352 1.18a64.251 64.251 0 0 0-.383 1.054c.002.002.41-.096.904-.218 1.022-.252.95-.242 1.046-.147.092.092.193-.148-1.163 2.757a300.938 300.938 0 0 1-1.226 2.608c-.045.063-.15.09-.233.06z"/></symbol><symbol id="leaf_icon" viewBox="0 0 7.937 6.35"><path d="M.422 6.284c-.134-.024-.235-.12-.367-.353C.006 5.846 0 5.825 0 5.752c0-.179.148-.38.463-.63.253-.202.38-.327.398-.394.013-.047.01-.065-.046-.205-.084-.214-.098-.29-.107-.572a2.379 2.379 0 0 1 .268-1.24c.202-.4.44-.686.849-1.014.382-.307.95-.597 1.383-.706C3.48.922 3.89.888 4.705.865c.74-.02.952-.04 1.269-.114.3-.07.457-.156.685-.376.267-.258.345-.302.554-.315.144-.009.204.012.293.1.184.18.305.524.4 1.129.078.508.009 1.192-.18 1.76a3.48 3.48 0 0 1-.906 1.453c-.38.38-.796.675-1.334.947-1.046.53-2.113.64-3.15.323a4.144 4.144 0 0 1-.398-.173c-.338-.164-.435-.203-.506-.203-.092 0-.149.069-.437.524-.086.138-.235.296-.316.337a.432.432 0 0 1-.257.027zM2.141 4.54c.029-.02.196-.175.371-.348.384-.377.574-.54.849-.725.559-.38 1.082-.54 1.87-.571.235-.01.24-.01.303-.05a.277.277 0 0 0 .135-.259.29.29 0 0 0-.13-.22c-.047-.03-.072-.037-.173-.041a4.22 4.22 0 0 0-2.85 1.06c-.318.274-.75.715-.793.811a.287.287 0 0 0 0 .227c.031.07.124.15.186.16a.68.68 0 0 1 .06.01c.03.008.123-.022.172-.054z"/></symbol><symbol id="saerch_icon" viewBox="0 0 6.085 6.085"><path d="M5.494 6.068c-.09-.027-.154-.079-.39-.314a118.46 118.46 0 0 0-.637-.63l-.436-.427-.128.08a2.513 2.513 0 0 1-1.555.357A2.577 2.577 0 0 1 .435 4.012a3.873 3.873 0 0 1-.31-.634 2.72 2.72 0 0 1-.08-1.298A2.566 2.566 0 0 1 1.974.073C3.094-.209 4.32.347 4.85 1.377c.119.23.162.343.22.57a2.53 2.53 0 0 1-.28 1.938l-.09.146.656.659c.423.424.67.685.692.734a.524.524 0 0 1-.004.394c-.108.204-.346.312-.55.25zM2.842 4.195a1.54 1.54 0 0 0 .888-.466c.333-.33.486-.696.486-1.155 0-.465-.153-.825-.495-1.162A1.533 1.533 0 0 0 2.573.934c-.455 0-.825.156-1.157.486a1.527 1.527 0 0 0-.48 1.248c.02.406.155.72.434 1.019.258.275.575.45.915.506.141.024.417.025.557.002z"/></symbol><symbol id="masage_icon" viewBox="0 0 7.144 5.821"><path d="M6.073 296.705a3.394 3.394 0 0 1-1.025-.422l-.113-.074-.115.017c-.6.092-1.253.022-1.788-.19-.141-.057-.501-.244-.487-.253a3.974 3.974 0 0 0 1.507-.167c.934-.299 1.623-.938 1.823-1.692.05-.19.062-.287.061-.502 0-.203-.019-.35-.06-.485a.217.217 0 0 1-.014-.065c.002-.002.08.046.173.108.196.13.41.327.531.49.16.212.27.465.303.69.02.145.009.424-.024.555-.103.408-.385.775-.815 1.061l-.122.082a.664.664 0 0 0 .052.12c.063.126.174.276.333.449.112.12.132.164.108.227-.035.093-.087.1-.328.051zM.82 295.78a.121.121 0 0 1-.077-.116c0-.053.014-.074.142-.216.181-.202.26-.312.325-.454l.037-.082-.12-.078a1.985 1.985 0 0 1-.7-.756c-.37-.724-.094-1.539.693-2.054.877-.574 2.183-.648 3.167-.181a2.3 2.3 0 0 1 .698.491c.237.243.366.465.443.76.025.097.029.14.029.333s-.004.236-.03.333c-.094.363-.301.671-.632.94-.361.294-.911.516-1.458.588-.307.04-.718.036-1.016-.011l-.1-.016-.126.08c-.332.21-.778.382-1.132.438-.086.013-.114.014-.143.002zm1.149-.927l.135-.092.148.027c.433.077.775.08 1.16.011.513-.092.956-.313 1.254-.626.233-.243.342-.511.325-.795a.869.869 0 0 0-.095-.372c-.24-.5-.905-.888-1.68-.979a4.642 4.642 0 0 0-.883.025c-.716.136-1.271.49-1.498.956a.84.84 0 0 0-.095.425c0 .118.006.16.033.253.057.19.167.365.334.53.126.125.265.223.526.372.114.064.207.119.207.12l-.038.094-.062.151-.024.06.059-.034c.032-.018.12-.075.194-.126z" stroke-width=".012" transform="translate(0 -291.18)"/></symbol></svg>
